X: 6548
T: Catharsis
R: reel
M: 4/4
K: Aminor
|EAAG EAAG|EGAB cABG|EGGD EGDG|edcd cABG|
EAAG EAAG|EGAB cABd|edcd cBAG|1 EAAG A2 A2:|2 EAAG ABcd||
eAAd AAcA|AdBd ABcd|eGGd GdBd|GdBd ABcd|
eAAd AAcA|AdBd ABcd|edcd cBAG|1 EAAG ABcd:|2 EAAG A4||

